outputs/icons/editor/line_spacing_sharp.svg

<svg xmlns="http://www.w3.org/2000/svg" width="1200" height="1200" fill="none"><g clip-path="url(#a)"><path fill="#000" d="M300 350h125L250 175 75 350h125v500H75l175 175 175-175H300zm200-100v100h600V250zm0 700h600V850H500zm0-300h600V550H500z"/></g><defs><clipPath id="a"><path fill="#fff" d="M0 0h1200v1200H0z"/></clipPath></defs></svg>

<svg width="1200" height="1200" viewBox="0 0 1200 1200" fill="none" xmlns="http://www.w3.org/2000/svg"><g clip-path="url(#clip0_125_1480)"><path d="M300 350H425L250 175L75 350H200V850H75L250 1025L425 850H300V350ZM500 250V350H1100V250H500ZM500 950H1100V850H500V950ZM500 650H1100V550H500V650Z" fill="#1D1E23"/></g><defs><clipPath id="clip0_125_1480"><path width="24" fill="white" d="M0 0H1200V1200H0V0z"/></clipPath></defs></svg>
